X:1
T:Morning (Monk), 77.77.77
T:William Henry Monk, 1871
T:Morning (Monk), 77.77.77
T:Public Domain
C:William Henry Monk, 1871
Z:Public Domain
%%score ( 1 2 ) ( 3 4 )
L:1/8
M:4/4
K:D
V:1 treble 
V:2 treble 
V:3 bass 
V:4 bass 
V:1
 [FA]3 [GA] [Ad]2 [DF]2 | [DF]2 [CE]2 D4 | [DF]3 [DF] [DB]2 [DA]2 | [EG]2 [DF]2 [CE]4 | %4
 [DF]3 [EF] [Dd]2 [Ec]2 | [FB]2 [FA]2 A2 ^G2 | [CA]3 [EB] [Ec]2 [Ee]2 | [Ec]2 (ED) [CA]4 | %8
 [DA]3 [DA] [DB]2 [DG]2 | [DE]2 [CA]2 [DF]4 | [DG]2 [DA]2 [DB]2 [DA]2 | [GB]2 [Ec]2 [Fd]4 |] %12
V:2
 x8 | x4 D4 | x8 | x8 | x8 | x4 E4 | x8 | x2 B2 x4 | x8 | x8 | x8 | x8 |] %12
V:3
 [D,D]3 [E,C] [F,D]2 (F,G,) | A,2 z G, [D,F,]4 | [D,A,]3 [D,A,] [G,,G,]2 [D,F,]2 | %3
 [C,A,]2 [D,A,]2 [A,,A,]4 | [D,A,]3 [C,^A,] [B,,B,]2 [C,A,]2 | [D,B,]2 [D,D]2 C2 B,2 | %6
 [F,A,]3 [E,^G,] (A,,B,,)(C,D,) | [E,A,]2 [E,^G,]2 [A,,A,]4 | [D,F,]3 [D,F,] G,2 [E,B,]2 | %9
 A,2 [A,,A,]2 [D,A,]4 | [B,,G,]2 [D,F,]2 G,2 [F,D]2 | [G,D]2 A,2 [D,A,]4 |] %12
V:4
 x6 A,2 | A,3 A,,2 x3 | x8 | x8 | x8 | x4 E,4 | x4 A,2 A,2 | x8 | x4 G,2 x2 | A,2 x6 | x4 G,2 x2 | %11
 x2 A,2 x4 |] %12

